X:1
T:Title
%%score ( 1 2 ) { 3 | 4 }
L:1/8
Q:1/4=115
M:3/4
K:Bb
V:1 treble nm="Grand Piano, Staff 1"
V:2 treble 
V:3 bass nm="Choir Pad, Come Faithful People"
V:4 bass 
V:1
 z2 F2 z2 | [DF]2 D4 | [DG]2 [DF]4 | [_D=E]2 =D4 | D2 B2 A2 | [DG]2 [Ec]4 | [EG]2 [FA]4 | %7
 [FB]2 [FA]4 | [FA]2 [GB]4 | [GB]2 [Ac]4 | [Ac]2 [Bd]4 | [Ge]2 [Fc]4 | [Gc]2 d2 c2 | [GB]2 G4 | %14
 [EA]2 [D^F]4- | [DF]2 [DG]4- | [DG]4 z2 |] %17
V:2
 D2 D2- [D=E]2 | x6 | x6 | x6 | z2 D4 | x6 | x6 | x6 | x6 | x6 | x6 | x6 | z2 ^F4 | x6 | x6 | x6 | %16
 x6 |] %17
V:3
 F,2 A,2 G,2 | A,2 F,4 | B,2 A,4 | A,2 F,4 | D2 D2 C2 | B,2 C4 | C2 C4 | D2 C4 | C2 E4 | E2 E4 | %10
 E2 D4 | B,2 A,4 | C2 A,4 | B,2 B,4 | C2 A,4- | A,2 B,4- | B,4 z2 |] %17
V:4
 D,2 D,4 | D,2 D,4 | G,,2 A,,4 | A,,2 D,4 | D,2 G,4 | G,2 C,4 | C,2 F,4 | B,,2 F,4 | F,2 E,4 | %9
 E,2 C,4 | C,2 C,4 | E,2 F,4 | E,2 D,4 | G,2 E,4 | C,2 D,4- | D,2 G,,4- | G,,4 z2 |] %17

